X: 698
T: Planxty Edmond Dodwell
R:
C:O'Carolan
B:O'Neill's 698
D:
Z: 1997 by John Chambers <jc@trillian.mit.edu>
N:"Spirited"
M:C
L:1/8
K:Dm
AAAD EGAB | cdAG FED^C | Dd^cd e{g}fed | c2~=B2 A2^cd |
| efed cA^GA | B^cdA GEDE | D2 (D/E/F) C2 Ec | AG{F}E>D D2 z2 ||
|| EDCA, CDEG | AAAG EGED | Cc=Bc Ad^cd | d=B^cd e2cd |
| efed cBcA | EEED C=B,CA, | DDDE FGAB | AGFE D2z2 |]


